X: 63
T: Møensk Hopsa
B:[[Notböcker/Melodier til gamle danske Almuedanse for Violin solo]]
O:Danmark
Z:Søren Bak Vestergaard
M: 2/4
L: 1/8
K: D
DF Ad|f2 d2|ed cB|BA A2|DF Ad|f2 d2|ed ce|d2 z2:|\
|:(!upbow!fa) aa|ba f2|ag e2|f!1!a d'2|(fa) aa|ba f2|ag ec|d2 z2:|

